X:1
T:The False Knight on the Road
M:4/2
L:1/4
K:E
 B2| B2 e c| B B G G| G2 G2| G2 E E| G2 F F| F2 E E|
M:2/2
 E E G B| e2 d c| B B E2| F F E2|
M:4/2
 E2 z2||
